X:365
T: Jim McKenna's
S: "First Collection of Traditional Irish Music" (M.Mulvihill)
Z: B.Black
L: 1/8
M: 4/4
R: reel
K: D
dB|A2 AB AFDF|A2 FA GECE|A3 d BdBF|EDCD EFGB|
A3 B AF (3FEF|A2 FA GECE|FGAd (3Bcd AF|EDCD EFDG||
FD (3DDD FDEG|FDDF GECE|FD (3DDD F2 GF|EDCD EFGE|
FD (3DDD FDEG|FD (3DED GECE|FD (3DDD FDGF|EDCD EFGA||
df (3fef dffe|dcdB AF (3DED|ce (3eee ceed|BAGB AF D2|
df (3fef dffe|dcdB AFDd|ce (3eee (3fga ec|d3 c dedB ||
